X: 10221
Q: "Slow--Strathspey time."
M: C
L: 1/8
K: F
c |\
(A<Td)(d>c) A<FF>(A | c)>.dTd>A {A}G2(Gc) |\
(A<d)(Td>c) A<FF>(e | f)>.ga<c A2A :: G |\
(F<ff)>.g (fg/a/) (Ta>g) | f<dTc>B {A}G2(G>A) |
c<AA>d c>AA>d | c>AA>F {F}G2(Gd) |\
c<AA>d c<AA>a | fcdf TA2(A>d) |
c<AA>d c<AA>d | c<AA>F {F}G2(G>A) |\
f>ga<g f>dd<f | c<ATA>F {F}G2(GA) |
f>ga<f f<dd<f | c<Af>g a2(ag) |\
f>ga<g f<dd>f | c<ATA>F {F}G2(GA) |\
a>fg>e f>cd<f | c<AA>F {F}G2Gf/g/ |
a>fg>e f>cd<f | c<Af>g {fg}a2af/g/ |\
a>fg>e f>cd<f | c<ATA>F {F}G2GA |\


